build/images/svgs/home_banner/ChangeUser.svg

<svg xmlns="http://www.w3.org/2000/svg" width="50" height="50" viewBox="0 0 50 50" style="fill: #fff; opacity:.2;">
    <path style="text-indent:0;text-align:start;line-height:normal;text-transform:none;block-progression:tb;-inkscape-font-specification:Bitstream Vera Sans" d="M 25 0 C 12.860666 0 3 9.8606661 3 22 C 3 27.319288 4.8877892 32.194561 8.03125 36 L 3.3125 36 A 1.0001 1.0001 0 1 0 3.3125 38 L 11 38 L 12 38 L 12 37 L 12 29.3125 A 1.0001 1.0001 0 0 0 10.875 28.3125 A 1.0001 1.0001 0 0 0 10 29.3125 L 10 35.1875 C 6.8977068 31.665105 5 27.07035 5 22 C 5 10.941334 13.941334 2 25 2 C 36.058666 2 45 10.941334 45 22 C 45 27.285703 42.967888 32.080913 39.625 35.65625 A 1.0001 1.0001 0 1 0 41.0625 37.03125 C 44.737612 33.100587 47 27.802297 47 22 C 47 9.8606661 37.139334 0 25 0 z M 24.875 7.40625 C 20.203288 7.492255 17.220404 9.3807765 15.9375 12.3125 C 14.715703 15.104581 14.989369 18.633048 15.875 22.28125 C 15.397706 22.838571 15.021163 23.58954 15.15625 24.71875 C 15.304101 25.947691 15.642843 26.822423 16.125 27.4375 C 16.389819 27.775324 16.739614 27.806548 17.0625 27.96875 C 17.239763 29.014549 17.531146 30.063959 17.96875 30.9375 C 18.220273 31.439587 18.502211 31.905233 18.78125 32.28125 C 18.904801 32.44774 19.087846 32.547293 19.21875 32.6875 C 19.22535 33.921103 19.23134 34.949492 19.125 36.25 C 18.799759 37.0344 18.042277 37.667292 16.8125 38.28125 C 15.543234 38.914923 13.888731 39.500929 12.21875 40.21875 C 10.548769 40.936571 8.8279819 41.811836 7.46875 43.1875 C 6.1095181 44.563164 5.1495528 46.449336 5 48.9375 L 4.9375 50 L 6 50 L 44 50 L 45.0625 50 L 45 48.9375 C 44.850777 46.450265 43.885246 44.563433 42.53125 43.1875 C 41.177254 41.811567 39.476183 40.936651 37.8125 40.21875 C 36.148817 39.500849 34.514452 38.914618 33.25 38.28125 C 32.036845 37.673577 31.268859 37.056176 30.9375 36.28125 C 30.827897 34.963071 30.836951 33.93153 30.84375 32.6875 C 30.973694 32.546009 31.159939 32.448396 31.28125 32.28125 C 31.55523 31.903753 31.818236 31.43945 32.0625 30.9375 C 32.488578 30.061932 32.795577 29.01134 32.96875 27.96875 C 33.283148 27.80649 33.61666 27.766934 33.875 27.4375 C 34.357397 26.822348 34.69643 25.947896 34.84375 24.71875 C 34.975563 23.624609 34.610546 22.902586 34.15625 22.34375 C 34.644491 20.757987 35.268134 18.19382 35.0625 15.5625 C 34.950264 14.126318 34.580939 12.692356 33.71875 11.5 C 32.928682 10.407383 31.647664 9.6091526 30.03125 9.28125 C 28.981568 7.9193246 27.088357 7.40625 24.90625 7.40625 L 24.875 7.40625 z M 24.90625 9.40625 C 24.91884 9.40625 24.92497 9.4062044 24.9375 9.40625 C 26.95087 9.41358 28.253751 10.004191 28.625 10.65625 L 28.875 11.0625 L 29.34375 11.125 C 30.734708 11.318512 31.531439 11.878606 32.09375 12.65625 C 32.656061 13.433894 32.968736 14.518932 33.0625 15.71875 C 33.250028 18.118386 32.55999 20.910519 32.125 22.21875 L 31.875 23 L 32.5625 23.40625 C 32.51938 23.38008 32.943811 23.669422 32.84375 24.5 C 32.72607 25.481854 32.492353 25.989402 32.3125 26.21875 C 32.132647 26.448098 32.038894 26.436874 32.03125 26.4375 L 31.1875 26.5 L 31.09375 27.3125 C 31.00107 28.177237 30.653222 29.2339 30.25 30.0625 C 30.048389 30.4768 29.839738 30.840935 29.65625 31.09375 C 29.472762 31.346565 29.279907 31.487522 29.375 31.4375 L 28.84375 31.71875 L 28.84375 32.3125 C 28.84375 33.759138 28.78566 34.948497 28.9375 36.625 L 28.9375 36.75 L 29 36.875 C 29.57084 38.409948 30.891545 39.366336 32.34375 40.09375 C 33.795955 40.821164 35.465308 41.355526 37.03125 42.03125 C 38.597192 42.706974 40.03284 43.515652 41.09375 44.59375 C 41.937064 45.450727 42.468089 46.583507 42.75 48 L 7.25 48 C 7.5327598 46.584143 8.0592734 45.450966 8.90625 44.59375 C 9.9717681 43.515351 11.427481 42.707179 13 42.03125 C 14.572519 41.355321 16.230516 40.82114 17.6875 40.09375 C 19.144484 39.36636 20.491155 38.411632 21.0625 36.875 L 21.09375 36.75 L 21.125 36.625 C 21.276815 34.949841 21.21875 33.760607 21.21875 32.3125 L 21.21875 31.71875 L 20.6875 31.4375 C 20.77781 31.48488 20.563711 31.34805 20.375 31.09375 C 20.186289 30.839454 19.957477 30.476663 19.75 30.0625 C 19.335046 29.234175 18.997606 28.168759 18.90625 27.3125 L 18.8125 26.5 L 17.96875 26.4375 C 17.96115 26.436878 17.867343 26.44817 17.6875 26.21875 C 17.507657 25.989327 17.274399 25.482059 17.15625 24.5 C 17.056864 23.669219 17.480627 23.379999 17.4375 23.40625 L 18.09375 23 L 17.90625 22.28125 C 16.964795 18.658031 16.801904 15.363027 17.78125 13.125 C 18.757843 10.893266 20.748064 9.4905767 24.90625 9.40625 z" color="#ccc" overflow="visible" enable-background="accumulate" font-family="Bitstream Vera Sans"/>
</svg>

<svg xmlns="http://www.w3.org/2000/svg" width="50" height="50" viewBox="0 0 50 50" fill="#fff" opacity=".2"><path style="text-indent:0;text-align:start;line-height:normal;text-transform:none;block-progression:tb;-inkscape-font-specification:Bitstream Vera Sans" d="M25 0C12.86 0 3 9.86 3 22c0 5.32 1.888 10.195 5.031 14H3.312a1 1 0 1 0 0 2H12V29.312a1 1 0 0 0-1.125-1 1 1 0 0 0-.875 1v5.875C6.898 31.666 5 27.07 5 22 5 10.941 13.941 2 25 2s20 8.941 20 20c0 5.286-2.032 10.08-5.375 13.656a1 1 0 1 0 1.438 1.375A21.969 21.969 0 0 0 47 22C47 9.86 37.14 0 25 0zm-.125 7.406c-4.672.086-7.655 1.975-8.938 4.907-1.221 2.792-.948 6.32-.062 9.968-.477.558-.854 1.309-.719 2.438.148 1.229.487 2.103.969 2.718.265.338.615.37.938.532.177 1.046.468 2.095.906 2.968.251.503.533.968.812 1.344.124.167.307.266.438.407.006 1.233.012 2.261-.094 3.562-.325.784-1.083 1.417-2.313 2.031-1.269.634-2.923 1.22-4.593 1.938s-3.391 1.593-4.75 2.968c-1.36 1.376-2.32 3.262-2.469 5.75L4.937 50H45.064L45 48.937c-.15-2.487-1.115-4.374-2.469-5.75-1.354-1.375-3.055-2.25-4.718-2.968-1.664-.718-3.299-1.304-4.563-1.938-1.213-.607-1.981-1.225-2.313-2-.11-1.318-.1-2.35-.093-3.593.13-.142.316-.24.437-.407.274-.377.537-.842.782-1.343.426-.876.733-1.927.906-2.97.314-.162.648-.201.906-.53.482-.616.821-1.49.969-2.72.132-1.093-.233-1.815-.688-2.374.488-1.586 1.112-4.15.907-6.782-.113-1.436-.482-2.87-1.344-4.062-.79-1.093-2.071-1.89-3.688-2.219-1.05-1.362-2.943-1.875-5.125-1.875h-.031zm.031 2h.032c2.013.008 3.316.598 3.687 1.25l.25.406.469.063c1.39.194 2.187.754 2.75 1.531.562.778.875 1.863.968 3.063.188 2.4-.502 5.192-.937 6.5l-.25.781.688.406c-.044-.026.38.263.28 1.094-.117.982-.35 1.49-.53 1.719-.18.23-.274.218-.282.218l-.843.063-.094.813c-.093.864-.44 1.92-.844 2.75-.202.414-.41.778-.594 1.03-.183.254-.376.395-.281.345l-.531.28v.595c0 1.446-.058 2.635.093 4.312v.125l.063.125c.57 1.535 1.892 2.491 3.344 3.219 1.452.727 3.121 1.262 4.687 1.937 1.566.676 3.002 1.485 4.063 2.563.843.857 1.374 1.99 1.656 3.406H7.25c.283-1.416.81-2.549 1.656-3.406 1.066-1.079 2.521-1.887 4.094-2.563 1.573-.676 3.23-1.21 4.688-1.937 1.456-.728 2.803-1.682 3.375-3.219l.03-.125.032-.125c.152-1.675.094-2.864.094-4.313v-.593l-.532-.282c.09.048-.123-.089-.312-.343a7.207 7.207 0 0 1-.625-1.032c-.415-.828-.752-1.893-.844-2.75l-.093-.812-.844-.063c-.008 0-.102.011-.282-.218-.18-.23-.413-.737-.53-1.719-.1-.83.324-1.12.28-1.094l.657-.406-.188-.719c-.941-3.623-1.104-6.918-.125-9.156.977-2.232 2.967-3.634 7.125-3.719z" color="#ccc" overflow="visible" font-family="Bitstream Vera Sans"/></svg>
